packages/foundations/assets/icons/functional/images/food/beverage_24.svg

<svg width="24" height="24" viewBox="0 0 24 24" fill="none" xmlns="http://www.w3.org/2000/svg">
<g clip-path="url(#clip0_185_1062)">
<path fill-rule="evenodd" clip-rule="evenodd" d="M15.0006 22H18.2603C19.2205 22 20.0006 21.2028 20.0006 20.2414V12.3165C20.0006 11.3552 19.8059 10.3939 19.4312 9.47945L18.4009 6.87691C18.1198 6.19691 18.0027 5.47006 18.0027 4.74321V3.99293C18.0027 2.89094 17.1361 2 16.0589 2H13.9277C12.8738 2 12.0006 2.91437 12.0006 3.99293V4.74321C12.0006 5.47006 11.8902 6.19691 11.6086 6.8679L11.2802 7.643C11.0221 8.27714 11.5148 9.02872 12.2186 9.02872C12.6174 9.02872 13.0162 8.77042 13.157 8.39458L13.462 7.61947C13.8373 6.67998 13.998 5.72806 13.998 4.71978V4H16.0006V4.71978C16.0006 5.72806 16.1833 6.67998 16.5587 7.61947L17.591 10.2032C17.8621 10.8863 18.0027 11.6131 18.0027 12.34V20H15.0006C14.4385 20 14.0006 20.4372 14.0006 21C14.0006 21.5392 14.4385 22 15.0006 22ZM4.98673 11L12.0111 11.0217C12.5488 11.0217 13.063 11.4437 12.9929 12.1471L11.9642 21.1341C11.9176 21.6255 11.4742 22 10.9841 22H6.0368C5.52342 22 5.10341 21.6255 5.05668 21.1341L4.00661 12.1C3.93656 11.4915 4.37998 11 4.98673 11ZM6.11434 13L6.33844 15.0193H7.98094C8.54394 15.0193 8.98964 15.4651 8.98964 16.0046C8.98964 16.5677 8.54394 17.0134 7.98094 17.0134H6.57324L6.93404 20.0258H10.0956L10.9134 13.0017L6.11434 13Z" fill="#1A1C1F"/>
</g>
<defs>
<clipPath id="clip0_185_1062">
<rect width="24" height="24" fill="white"/>
</clipPath>
</defs>
</svg>

<svg xmlns="http://www.w3.org/2000/svg" width="24" height="24" fill="none"><g clip-path="url(#a)"><path fill="#1A1C1F" fill-rule="evenodd" d="M15 22h3.26c.96 0 1.74-.797 1.74-1.759v-7.924c0-.962-.194-1.923-.569-2.838l-1.03-2.602a5.6 5.6 0 0 1-.398-2.134v-.75C18.003 2.89 17.136 2 16.059 2h-2.131C12.874 2 12 2.914 12 3.993v.75c0 .727-.11 1.454-.392 2.125l-.329.775c-.258.634.235 1.386.939 1.386.398 0 .797-.259.938-.634l.305-.776c.375-.939.536-1.89.536-2.9V4h2.003v.72c0 1.008.182 1.96.558 2.9l1.032 2.583c.271.683.412 1.41.412 2.137V20H15c-.562 0-1 .437-1 1 0 .54.438 1 1 1M4.988 11l7.024.022c.538 0 1.052.422.982 1.125l-1.029 8.987c-.046.491-.49.866-.98.866H6.037a.97.97 0 0 1-.98-.866L4.007 12.1a.966.966 0 0 1 .98-1.1m1.127 2 .224 2.02h1.643a.996.996 0 1 1 0 1.993H6.573l.361 3.013h3.162l.817-7.024z" clip-rule="evenodd"/></g><defs><clipPath id="a"><path fill="#fff" d="M0 0h24v24H0z"/></clipPath></defs></svg>
